!!!COM: Robert Schumann
!!!CNT: Deutsch
!!!TXO: Deutsch
!!!OTL: "Viel Glu2ck zur Reise, Schwalben!"
!!!LYR: Elizabeth Kulmann
!!!OPR: Sieben Lieder
!!!OPS: Op. 104
!!!ONM: No. 2
!!!ENC: Leigh VanHandel
!!!YOR: Schumann Lieder - Max Friedlaender, ed.,
!!!YOR: New York: C. F. Peters, Vol. 3
!!!ODT: 1851/
**kern	**silbe
*staff1	*
*clefG2	*
*k[b-e-]	*
*M2/4	*
*MM[Lebhaft]	*
=1	=1
2r	.
=2	=2
4r	.
8r	.
{8dd	{Viel
=3	=3
8b-	Glu2ck
8f	zur
8d	Rei-
8g	-se,
=4	=4
8g	Schwal-
8f}	ben!}
8r	.
{b-q	{ihr
8dd	|
=5	=5
8.cc	eilt,
16f	ein
8f	lan-
8e-	-ger
=6	=6
8.d}	Zug,}
{16f#	{zum
8a	scho2-
8dd	-nen
=7	=7
8cc	war-
8b-	-men
8a	Su2-
16g	-den
16g	in
=8	=8
4.cc	fro-
8dd}	-hem,}
=9	=9
{16cc	{ku2h-
8b-	|
16a	|
8g	|
8a	-nem
=10	=10
4f}	Flug.}
4r	.
=11	=11
4r	.
8r	.
{8g	{Gern
=12	=12
16g	mo2ch-
16f	-te
4f	wohl
8f	die
=13	=13
24b-	Rei-
24b-	-se
24b-	ich
16b-	ein
16b-	mal
8b-	tun
8a	mit
=14	=14
4cc}	euch,}
8r	.
{16dd	{zu
16een	|
=15	=15
8.ff	seh'n
32een	die
32dd	|
8b-	tau-
8cc	-send
=16	=16
8.ff	Wun-
32een	|
32dd	|
8cc}	-der,}
{8ee	{die
=17	=17
8ff	dar-
8a	beut
8.dd	je-
16en	-des
=18	=18
4.f}	Reich.}
{8dd	{Doch
=19	=19
8b-	im-
8f	-mer
8d	kam'
8g	ich
=20	=20
8g	wie-
8f}	-der,}
8r	.
{b-q	{wie
8dd	|
=21	=21
8.cc	scho2n
16f	auch
8f	je-
8e-	-des
=22	=22
8.d}	Land}
{16f#	{und
8a	reich
8dd	an
=23	=23
8cc	Wun-
8b-	-dern
8a	wa2-
16g	-re,
16g	zu-
=24	=24
4.cc}	-ru2ck}
{8ee-	{in's
=25	=25
8.b-	Va-
16a	-ter-
8a	-land,
8ff	in's
=26	=26
8.cc	Va-
16bn	-ter-
8b	-land,
8b	in's
=27	=27
4.ee-	Va-
8a	-ter
=28	=28
4b-}	-land!}
4r	.
==	==
*-	*-
